docs/img/runner-bash.svg

<?xml version="1.0" encoding="UTF-8" standalone="no"?>
<svg
   xmlns:dc="http://purl.org/dc/elements/1.1/"
   xmlns:cc="http://creativecommons.org/ns#"
   xmlns:rdf="http://www.w3.org/1999/02/22-rdf-syntax-ns#"
   xmlns:svg="http://www.w3.org/2000/svg"
   xmlns="http://www.w3.org/2000/svg"
   xmlns:sodipodi="http://sodipodi.sourceforge.net/DTD/sodipodi-0.dtd"
   xmlns:inkscape="http://www.inkscape.org/namespaces/inkscape"
   width="40"
   height="40"
   version="1.1"
   viewBox="0 0 40 40"
   id="svg241"
   sodipodi:docname="runner-bash.svg"
   inkscape:version="1.0.2 (e86c870879, 2021-01-15)">
  <defs
     id="defs245" />
  <sodipodi:namedview
     pagecolor="#ffffff"
     bordercolor="#666666"
     borderopacity="1"
     objecttolerance="10"
     gridtolerance="10"
     guidetolerance="10"
     inkscape:pageopacity="0"
     inkscape:pageshadow="2"
     inkscape:window-width="1920"
     inkscape:window-height="1016"
     id="namedview243"
     showgrid="false"
     inkscape:zoom="3.4957592"
     inkscape:cx="82.233777"
     inkscape:cy="10.835237"
     inkscape:window-x="0"
     inkscape:window-y="0"
     inkscape:window-maximized="1"
     inkscape:current-layer="g231" />
  <metadata
     id="metadata215">
    <rdf:RDF>
      <cc:Work
         rdf:about="">
        <dc:format>image/svg+xml</dc:format>
        <dc:type
           rdf:resource="http://purl.org/dc/dcmitype/StillImage" />
        <dc:title></dc:title>
      </cc:Work>
    </rdf:RDF>
  </metadata>
  <mask
     id="a"
     fill="#ffffff">
    <path
       d="M 0,0 H 313.3 V 159.86 H 0 Z"
       fill="#ffffff"
       fill-rule="evenodd"
       id="path217" />
  </mask>
  <mask
     id="b"
     fill="#ffffff">
    <path
       d="M 0,0 H 313.3 V 159.86 H 0 Z"
       fill="#ffffff"
       fill-rule="evenodd"
       id="path220" />
  </mask>
  <g
     transform="matrix(0.49527,0,0,0.49527,5.0758,3.2126)"
     id="g239">
    <g
       fill="#0ca09d"
       id="g231">
      <polygon
         class="st0"
         transform="matrix(1.6152,0,0,1.6152,-20.545799,-106.93)"
         points="52.2,99.9 52.2,75 30.6,62.5 9,75 9,99.9 30.6,112.3 "
         id="polygon223" />
    </g>
    <g
       fill="#fdfdfd"
       stroke="#ffffff"
       stroke-linecap="round"
       stroke-linejoin="round"
       stroke-width="3.8486"
       aria-label="&gt;_"
       id="g237"
       transform="translate(4.0382014)">
      <path
         d="M 2.502,35.735 20.59,28.2024 2.502,19.6142 V 15.8719 L 25.1,27.1469 v 2.3989 L 2.502,39.4774 Z"
         id="path233" />
      <path
         d="M 48.945,52.432 H 27.451 v -3.0706 h 21.494 z"
         id="path235" />
    </g>
  </g>
</svg>

<?xml version="1.0" encoding="UTF-8"?>
<svg width="60" height="40" version="1.1" viewBox="0 0 60 40" xmlns="http://www.w3.org/2000/svg" xmlns:cc="http://creativecommons.org/ns#" xmlns:dc="http://purl.org/dc/elements/1.1/" xmlns:rdf="http://www.w3.org/1999/02/22-rdf-syntax-ns#" xmlns:xlink="http://www.w3.org/1999/xlink">
 <metadata>
  <rdf:RDF>
   <cc:Work rdf:about="">
    <dc:format>image/svg+xml</dc:format>
    <dc:type rdf:resource="http://purl.org/dc/dcmitype/StillImage"/>
   </cc:Work>
  </rdf:RDF>
 </metadata>
 <mask id="a" fill="#ffffff">
  <path d="m0 0h313.3v159.86h-313.3z" fill="#fff" fill-rule="evenodd"/>
 </mask>
 <mask id="b" fill="#ffffff">
  <path d="m0 0h313.3v159.86h-313.3z" fill="#fff" fill-rule="evenodd"/>
 </mask>
 <g transform="matrix(.49527 0 0 .49527 5.0758 3.2126)">
  <g fill="#0ca09d">
   <polygon class="st0" transform="matrix(1.6152 0 0 1.6152 -24.584 -106.93)" points="9 99.9 30.6 112.3 52.2 99.9 52.2 75 30.6 62.5 9 75"/>
   <path class="st0" d="m69.72 49.413 25.308 14.568 25.185-14.568v-29.012l-25.185-14.568-25.308 14.568zm25.308 17.901-28.148-16.173v-32.468l28.024-16.173 28.024 16.173v32.468z" stroke-width="1.2345"/>
   <path class="st0" d="m100.58 104.21 25.308 14.568 25.185-14.568v-29.012l-25.185-14.568-25.308 14.568zm25.308 17.901-28.148-16.173v-32.468l28.024-16.173 28.024 16.173v32.468z" stroke-width="1.2345"/>
   <polygon class="st0" transform="matrix(1.2345 0 0 1.2345 26.14 -17.499)" points="30.6 112.3 52.2 99.9 52.2 75 30.6 62.5 9 75 9 99.9"/>
  </g>
  <g fill="#fdfdfd" stroke="#fff" stroke-linecap="round" stroke-linejoin="round" stroke-width="3.8486" aria-label="&gt;_">
   <path d="m2.502 35.735 18.088-7.5326-18.088-8.5882v-3.7423l22.598 11.275v2.3989l-22.598 9.9316z"/>
   <path d="m48.945 52.432h-21.494v-3.0706h21.494z"/>
  </g>
 </g>
</svg>
